X:1
T:Title
%%score { ( 1 4 ) | ( 2 3 ) }
L:1/8
M:4/4
K:D
V:1 treble nm="Grand Piano"
V:4 treble 
V:2 bass 
V:3 bass 
V:1
 z4 z2[Q:1/4=100] [DF][EG] | [FA]2 [FA]2 [=F^G][^FA][=GB][FA] | [Fd]6 [DF][DF] | %3
 [CE]2 [DF]2 [EG][FA][Ac][GB] | B4 z4 | [FA]2 [FA]2 [=F^G][^FA][=GB][FA] |[M:3/4] [Fd]6 | %7
[M:1/4] FF |[M:4/4] F2 E2 ^DEcB |[M:3/4] [A,CA]6 |[M:1/4] z2 | %11
[M:4/4] [DFd]2 [DFc]2 D-[DG][DF]-[DFB] | [C-GB]4 C2 [CE]2 | [CGc]2 [GB]2 [CG]-[CGB]cB | %14
 [D=FB]4 z4 | [DFd]2 [DFc]2 .[B,DFB]2 .[B,DF]2 | [E-A]4 E2 z2 | A2 d2 e3 c |[M:3/4] [Fd]6 |] %19
V:2
 z4 z2 [D,A,][D,A,] | [D,D]2 [D,D]2 [D,D]2 [D,D]2 | [D,A,]6 [D,A,][D,A,] | %3
 [A,,A,]2 [A,,A,]2 [A,,A,]2 A,C | z4 A2 D,D, | [D,D]2 [D,D]2 [D,D]2 [D,D]2 |[M:3/4] [D,A,]6 | %7
[M:1/4] [D,A,D][D,A,D] |[M:4/4] [E,A,C]2 [E,A,C]2 [E,A,C]2 [E,^G,D]2 |[M:3/4] A,,6 | %10
[M:1/4][K:treble] AA |[M:4/4][K:bass] [D,A,]A,,[D,A,]A,, D,A,,D,A,, | E,A,,E,A,, E,A,,E,A,, | %13
 [E,A,]A,,[E,A,]A,, E,A,,[E,A,]A,, | [D,^G,]A,,D,A,, D,2[K:treble] AA | %15
 [F,B,]B,,[F,B,]B,, F,B,,F,B,, | E,B,,E,B,, E,B,,[K:treble][^G,D=F][G,DF] | %17
 [A,DF]2 [A,DF]2 [A,CG]3 [A,EG] |[M:3/4][K:bass] [D,D]6 |] %19
V:3
 x8 | x8 | x8 | z4 z2 A,,2 | D,6 z2 | x8 |[M:3/4] x6 |[M:1/4] x2 |[M:4/4] x8 |[M:3/4] x6 | %10
[M:1/4][K:treble] x2 |[M:4/4][K:bass] x8 | x8 | x8 | x6[K:treble] x2 | x8 | x6[K:treble] x2 | x8 | %18
[M:3/4][K:bass] x6 |] %19
V:4
 x8 | x8 | x8 | x8 | [DF]6 [A,DF][G,EG] | x8 |[M:3/4] x6 |[M:1/4] x2 |[M:4/4] x8 |[M:3/4] x6 | %10
[M:1/4] x2 |[M:4/4] z4 .[A,F]2 .[A,A]2 | .A,2 .A,2 .[A,E]2 [A,G]G | z4 .[A,A]2 [CG]2 | %14
 z2 .^G,2 [A,D^FA]2 z2 | x8 | .B,2 .B,2 .[B,G]2 BB | x8 |[M:3/4] x6 |] %19

